images/zhuyin/04.svg

<svg width="50" height="50" viewBox="0 0 50 50" fill="none" xmlns="http://www.w3.org/2000/svg">
<path d="M30.7188 17.0938C31.1875 17.0938 31.7031 17.2422 32.2656 17.5391C32.9219 17.8828 33.25 18.1797 33.25 18.4297C33.25 18.6953 32.5547 18.8359 31.1641 18.8516C30.1953 18.8984 28.0938 19.1562 24.8594 19.625C22.1406 20.0312 20.2969 20.2812 19.3281 20.375C19.4844 20.9688 19.5625 21.75 19.5625 22.7188L19.5859 26.8203C19.5859 28.3203 19.8203 29.3906 20.2891 30.0312C20.7266 30.5312 21.3281 30.7812 22.0938 30.7812C22.9531 30.7812 24.2578 30.7188 26.0078 30.5938C28.2422 30.4688 29.6875 30.2969 30.3438 30.0781C30.75 29.9219 31.0625 29.8438 31.2812 29.8438C31.7031 29.8438 32.1484 30.0547 32.6172 30.4766C33.0391 30.8672 33.25 31.1953 33.25 31.4609C33.25 31.8828 32.4688 32.0938 30.9062 32.0938H27.4609C26.7109 32.0938 25.9688 32.1328 25.2344 32.2109C24.3906 32.2734 23.6875 32.3047 23.125 32.3047C21.3906 32.3047 20.0547 31.8594 19.1172 30.9688C18.2891 30.125 17.875 28.8281 17.875 27.0781V24.5938C17.875 23.2656 17.6953 21.8672 17.3359 20.3984C17.0078 19.4141 16.8438 18.875 16.8438 18.7812C16.8438 18.4062 17 18.2188 17.3125 18.2188C17.6094 18.2188 17.9766 18.4297 18.4141 18.8516L18.6484 18.8984C19.0391 18.9453 19.3125 18.9688 19.4688 18.9688C20.5781 18.9688 22.5938 18.7734 25.5156 18.3828C27.0312 18.1797 28.2812 17.9141 29.2656 17.5859C30.0781 17.2578 30.5625 17.0938 30.7188 17.0938Z" fill="#333333"/>
<path d="M32.2656 17.5391L32.0322 17.9813L32.0336 17.982L32.2656 17.5391ZM31.1641 18.8516L31.1584 18.3516L31.1492 18.3517L31.1399 18.3521L31.1641 18.8516ZM24.8594 19.625L24.7877 19.1302L24.7855 19.1305L24.8594 19.625ZM19.3281 20.375L19.28 19.8773L18.695 19.9339L18.8446 20.5022L19.3281 20.375ZM19.5625 22.7188L19.0625 22.7188L19.0625 22.7216L19.5625 22.7188ZM19.5859 26.8203L20.0859 26.8203L20.0859 26.8175L19.5859 26.8203ZM20.2891 30.0312L19.8855 30.3265L19.8984 30.3441L19.9128 30.3605L20.2891 30.0312ZM26.0078 30.5938L25.9799 30.0945L25.9722 30.095L26.0078 30.5938ZM30.3438 30.0781L30.5019 30.5525L30.5126 30.5489L30.5232 30.5448L30.3438 30.0781ZM32.6172 30.4766L32.9569 30.1096L32.9517 30.1049L32.6172 30.4766ZM25.2344 32.2109L25.2713 32.7096L25.2793 32.709L25.2873 32.7081L25.2344 32.2109ZM19.1172 30.9688L18.7603 31.319L18.7665 31.3252L18.7728 31.3312L19.1172 30.9688ZM17.3359 20.3984L17.8216 20.2796L17.8167 20.2597L17.8103 20.2403L17.3359 20.3984ZM18.4141 18.8516L18.067 19.2115L18.1724 19.3131L18.316 19.3419L18.4141 18.8516ZM18.6484 18.8984L18.5504 19.3887L18.5695 19.3926L18.5889 19.3949L18.6484 18.8984ZM25.5156 18.3828L25.5819 18.8784L25.582 18.8784L25.5156 18.3828ZM29.2656 17.5859L29.4237 18.0603L29.4385 18.0554L29.4529 18.0496L29.2656 17.5859ZM30.7188 17.5938C31.0824 17.5938 31.5172 17.7094 32.0322 17.9813L32.499 17.0969C31.8891 16.775 31.2926 16.5938 30.7188 16.5938V17.5938ZM32.0336 17.982C32.3458 18.1455 32.5496 18.2828 32.6684 18.3903C32.8031 18.5122 32.75 18.5229 32.75 18.4297H33.75C33.75 18.0865 33.5328 17.8238 33.3394 17.6488C33.13 17.4594 32.8417 17.2764 32.4976 17.0961L32.0336 17.982ZM32.75 18.4297C32.75 18.2377 32.8864 18.1627 32.8674 18.1738C32.851 18.1833 32.7838 18.2131 32.6294 18.2443C32.3294 18.305 31.8462 18.3439 31.1584 18.3516L31.1697 19.3515C31.8726 19.3436 32.4323 19.3044 32.8276 19.2245C33.0209 19.1854 33.2144 19.1292 33.3719 19.0372C33.5267 18.9467 33.75 18.7545 33.75 18.4297H32.75ZM31.1399 18.3521C30.1426 18.4004 28.016 18.6623 24.7877 19.1302L24.9311 20.1198C28.1715 19.6502 30.248 19.3965 31.1882 19.351L31.1399 18.3521ZM24.7855 19.1305C22.0652 19.537 20.2339 19.785 19.28 19.8773L19.3763 20.8727C20.3599 20.7775 22.2161 20.5255 24.9333 20.1195L24.7855 19.1305ZM18.8446 20.5022C18.9855 21.0377 19.0625 21.7713 19.0625 22.7188H20.0625C20.0625 21.7287 19.9832 20.8998 19.8117 20.2478L18.8446 20.5022ZM19.0625 22.7216L19.0859 26.8232L20.0859 26.8175L20.0625 22.7159L19.0625 22.7216ZM19.0859 26.8203C19.0859 28.3455 19.319 29.5522 19.8855 30.3265L20.6926 29.736C20.3216 29.229 20.0859 28.2951 20.0859 26.8203H19.0859ZM19.9128 30.3605C20.4601 30.9861 21.2083 31.2812 22.0938 31.2812V30.2812C21.448 30.2812 20.993 30.0764 20.6654 29.702L19.9128 30.3605ZM22.0938 31.2812C22.9718 31.2812 24.2911 31.2176 26.0434 31.0925L25.9722 30.095C24.2245 30.2199 22.9345 30.2812 22.0938 30.2812V31.2812ZM26.0357 31.093C27.1585 31.0302 28.0897 30.9552 28.8266 30.8676C29.5545 30.781 30.1226 30.6789 30.5019 30.5525L30.1856 29.6038C29.9087 29.6961 29.4259 29.7893 28.7085 29.8746C28.0001 29.9588 27.0915 30.0323 25.9799 30.0945L26.0357 31.093ZM30.5232 30.5448C30.9175 30.3932 31.1586 30.3438 31.2812 30.3438V29.3438C30.9664 29.3438 30.5825 29.4506 30.1643 29.6115L30.5232 30.5448ZM31.2812 30.3438C31.5308 30.3438 31.8615 30.4691 32.2827 30.8482L32.9517 30.1049C32.4354 29.6403 31.8755 29.3438 31.2812 29.3438V30.3438ZM32.2775 30.8434C32.4706 31.0223 32.5965 31.1698 32.6712 31.286C32.7477 31.405 32.75 31.459 32.75 31.4609H33.75C33.75 31.1972 33.6468 30.9543 33.5124 30.7452C33.3761 30.5333 33.1856 30.3215 32.9569 30.1097L32.2775 30.8434ZM32.75 31.4609C32.75 31.3862 32.7942 31.3449 32.7888 31.3493C32.7685 31.3657 32.698 31.4085 32.5337 31.4528C32.2086 31.5406 31.6763 31.5938 30.9062 31.5938V32.5938C31.6987 32.5938 32.3383 32.5414 32.7944 32.4183C33.0208 32.3571 33.2433 32.268 33.4182 32.1263C33.6081 31.9725 33.75 31.7467 33.75 31.4609H32.75ZM30.9062 31.5938H27.4609V32.5938H30.9062V31.5938ZM27.4609 31.5938C26.6935 31.5938 25.9337 31.6337 25.1815 31.7137L25.2873 32.7081C26.0038 32.6319 26.7283 32.5938 27.4609 32.5938V31.5938ZM25.1974 31.7123C24.3605 31.7743 23.6707 31.8047 23.125 31.8047V32.8047C23.7043 32.8047 24.4207 32.7726 25.2713 32.7096L25.1974 31.7123ZM23.125 31.8047C21.4741 31.8047 20.2781 31.382 19.4616 30.6063L18.7728 31.3312C19.8313 32.3368 21.3072 32.8047 23.125 32.8047V31.8047ZM19.474 30.6185C18.7736 29.9049 18.375 28.7595 18.375 27.0781H17.375C17.375 28.8968 17.8045 30.3451 18.7603 31.319L19.474 30.6185ZM18.375 27.0781V24.5938H17.375V27.0781H18.375ZM18.375 24.5938C18.375 23.2205 18.1892 21.782 17.8216 20.2796L16.8503 20.5173C17.2014 21.9524 17.375 23.3107 17.375 24.5938H18.375ZM17.8103 20.2403C17.6467 19.7495 17.5252 19.3735 17.4451 19.1103C17.4049 18.9782 17.3765 18.8788 17.3585 18.8096C17.3495 18.7747 17.3443 18.7521 17.3417 18.7392C17.3372 18.7164 17.3438 18.7396 17.3438 18.7812H16.3438C16.3438 18.8463 16.3555 18.9069 16.3612 18.9353C16.3688 18.9738 16.3791 19.0163 16.3905 19.0605C16.4136 19.1495 16.4466 19.264 16.4885 19.4014C16.5724 19.6773 16.6971 20.063 16.8616 20.5566L17.8103 20.2403ZM17.3438 18.7812C17.3438 18.7206 17.3502 18.6854 17.3548 18.669C17.359 18.6538 17.3594 18.6623 17.345 18.6795C17.338 18.6879 17.3292 18.6963 17.319 18.7036C17.3089 18.7109 17.2997 18.7155 17.2931 18.7181C17.2804 18.7232 17.2833 18.7188 17.3125 18.7188V17.7188C17.0528 17.7188 16.7754 17.801 16.5768 18.0393C16.3928 18.2601 16.3438 18.5366 16.3438 18.7812H17.3438ZM17.3125 18.7188C17.398 18.7188 17.6394 18.7992 18.067 19.2115L18.7611 18.4916C18.3137 18.0602 17.8207 17.7188 17.3125 17.7188V18.7188ZM18.316 19.3419L18.5504 19.3887L18.7465 18.4081L18.5121 18.3613L18.316 19.3419ZM18.5889 19.3949C18.9785 19.4416 19.2791 19.4688 19.4688 19.4688V18.4688C19.3459 18.4688 19.0997 18.449 18.708 18.402L18.5889 19.3949ZM19.4688 19.4688C20.6159 19.4688 22.6625 19.2687 25.5819 18.8784L25.4494 17.8872C22.525 18.2782 20.5404 18.4688 19.4688 18.4688V19.4688ZM25.582 18.8784C27.1157 18.6728 28.3991 18.4018 29.4237 18.0603L29.1075 17.1116C28.1634 17.4263 26.9468 17.6865 25.4492 17.8872L25.582 18.8784ZM29.4529 18.0496C29.8555 17.8869 30.1697 17.7679 30.3987 17.6904C30.5135 17.6515 30.601 17.625 30.6641 17.6089C30.7382 17.5899 30.7464 17.5938 30.7188 17.5938V16.5938C30.613 16.5938 30.502 16.6181 30.416 16.6401C30.319 16.665 30.2052 16.7001 30.0779 16.7432C29.8225 16.8297 29.4882 16.9568 29.0784 17.1223L29.4529 18.0496Z" fill="#333333"/>
</svg>

<svg xmlns="http://www.w3.org/2000/svg" width="50" height="50" fill="none"><path fill="#333" d="M30.719 17.094c.468 0 .984.148 1.547.445.656.344.984.64.984.89 0 .266-.695.407-2.086.423-.969.046-3.07.304-6.305.773-2.718.406-4.562.656-5.53.75.155.594.233 1.375.233 2.344l.024 4.101c0 1.5.234 2.57.703 3.211.438.5 1.04.75 1.805.75.86 0 2.164-.062 3.914-.187 2.234-.125 3.68-.297 4.336-.516.406-.156.718-.234.937-.234.422 0 .867.21 1.336.633.422.39.633.718.633.984 0 .422-.781.633-2.344.633h-3.445c-.75 0-1.492.039-2.227.117-.843.062-1.547.094-2.109.094-1.734 0-3.07-.446-4.008-1.336-.828-.844-1.242-2.14-1.242-3.89v-2.485c0-1.328-.18-2.727-.54-4.196-.327-.984-.491-1.523-.491-1.617 0-.375.156-.562.468-.562.297 0 .665.21 1.102.633l.234.046c.391.047.665.07.82.07 1.11 0 3.126-.195 6.048-.585 1.515-.203 2.765-.469 3.75-.797.812-.328 1.297-.492 1.453-.492Z"/><path fill="#333" d="m32.266 17.54-.234.441.002.001.232-.443Zm-1.102 1.312-.006-.5h-.019l.025.5Zm-6.305.773-.071-.495h-.003l.074.495Zm-5.53.75-.049-.498-.585.057.15.568.483-.127Zm.233 2.344h-.5v.003l.5-.003Zm.024 4.101h.5v-.003l-.5.003Zm.703 3.211-.404.296.013.017.015.016.376-.329Zm5.719.563-.028-.5-.008.001.036.499Zm4.336-.516.158.474.01-.003.011-.004-.18-.467Zm2.273.399.34-.367-.005-.005-.335.372Zm-7.383 1.734.037.499.008-.001h.008l-.053-.498Zm-6.117-1.242-.357.35.006.006.007.006.344-.362Zm-1.781-10.57.486-.12-.005-.02-.007-.019-.474.158Zm1.078-1.547-.347.36.105.101.144.029.098-.49Zm.234.046-.098.49.02.005.019.002.06-.497Zm6.868-.515.066.495-.066-.495Zm3.75-.797.158.474.015-.005.014-.005-.187-.464Zm1.453.008c.363 0 .798.115 1.313.387l.467-.884c-.61-.322-1.206-.503-1.78-.503v1Zm1.315.388c.312.163.516.3.634.408.135.122.082.133.082.04h1c0-.343-.217-.606-.41-.781-.21-.19-.498-.373-.842-.553l-.464.886Zm.716.448c0-.192.136-.267.117-.256a.926.926 0 0 1-.238.07c-.3.061-.783.1-1.47.108l.01 1c.704-.008 1.263-.048 1.659-.128.193-.039.386-.095.544-.187.155-.09.378-.282.378-.607h-1Zm-1.61-.078c-.997.048-3.124.31-6.352.778l.143.99c3.24-.47 5.317-.724 6.257-.769l-.048-.999Zm-6.355.779c-2.72.406-4.551.654-5.505.746l.096.996c.984-.096 2.84-.348 5.557-.754l-.148-.988Zm-5.94 1.371c.14.536.218 1.27.218 2.217h1c0-.99-.08-1.82-.251-2.471l-.967.254Zm.218 2.22.023 4.101 1-.006-.023-4.101-1 .006Zm.023 4.098c0 1.526.233 2.732.8 3.506l.807-.59c-.371-.507-.607-1.44-.607-2.916h-1Zm.827 3.54c.547.626 1.295.921 2.18.921v-1c-.645 0-1.1-.205-1.428-.579l-.752.658Zm2.18.921c.879 0 2.198-.063 3.95-.188l-.07-.998c-1.748.125-3.038.186-3.88.186v1Zm3.943-.188a46.365 46.365 0 0 0 2.79-.225c.729-.087 1.297-.19 1.676-.316l-.316-.948c-.277.092-.76.185-1.477.27-.709.085-1.617.158-2.73.22l.057.999Zm4.487-.548c.395-.152.636-.201.758-.201v-1c-.315 0-.698.107-1.117.267l.36.934Zm.758-.201c.25 0 .58.125 1.002.504l.669-.743c-.517-.465-1.076-.761-1.67-.761v1Zm.997.5c.193.178.319.326.393.442.077.119.079.173.079.175h1c0-.264-.103-.507-.238-.716a3.414 3.414 0 0 0-.555-.635l-.68.733Zm.472.617c0-.075.044-.116.039-.112a.763.763 0 0 1-.255.104c-.325.088-.858.14-1.628.14v1c.793 0 1.432-.052 1.888-.175.227-.06.45-.15.624-.292a.847.847 0 0 0 .332-.665h-1Zm-1.844.133h-3.445v1h3.445v-1Zm-3.445 0c-.767 0-1.527.04-2.28.12l.106.994a20.54 20.54 0 0 1 2.174-.114v-1Zm-2.264.118c-.837.062-1.526.093-2.072.093v1c.58 0 1.296-.032 2.146-.095l-.074-.998Zm-2.072.093c-1.65 0-2.847-.423-3.663-1.199l-.69.725c1.06 1.006 2.535 1.474 4.353 1.474v-1Zm-3.651-1.186c-.7-.714-1.099-1.86-1.099-3.54h-1c0 1.818.43 3.266 1.385 4.24l.714-.7Zm-1.099-3.54v-2.485h-1v2.484h1Zm0-2.485c0-1.373-.186-2.812-.553-4.314l-.972.237c.351 1.435.525 2.794.525 4.077h1Zm-.565-4.354c-.163-.49-.285-.866-.365-1.13a8.104 8.104 0 0 1-.103-.37c-.005-.024.002 0 .002.041h-1c0 .065.011.126.017.154a8.825 8.825 0 0 0 .127.466c.084.276.21.662.374 1.156l.948-.317Zm-.466-1.459c0-.06.006-.096.01-.112.005-.015.005-.007-.009.01a.14.14 0 0 1-.052.04c-.013.004-.01 0 .02 0v-1c-.26 0-.538.082-.736.32-.184.221-.233.498-.233.742h1Zm-.032-.062c.086 0 .327.08.755.492l.694-.72c-.447-.43-.94-.772-1.448-.772v1Zm1.004.623.234.047.197-.98-.235-.048-.196.98Zm.273.053c.39.047.69.074.88.074v-1c-.123 0-.37-.02-.761-.067l-.12.993Zm.88.074c1.147 0 3.194-.2 6.113-.59l-.133-.992c-2.924.391-4.909.582-5.98.582v1Zm6.113-.59c1.534-.206 2.817-.477 3.842-.819l-.316-.948c-.945.314-2.161.575-3.659.775l.133.991Zm3.87-.83c.403-.162.718-.281.947-.359.114-.039.202-.065.265-.081.074-.02.082-.015.055-.015v-1c-.106 0-.217.024-.303.046-.097.025-.21.06-.338.103-.255.087-.59.214-1 .38l.375.927Z"/></svg>
